X:1
T:Lift Him Up
T:Lift Him Up
T:David Stiles Hakes
T:May E. Warren, 1908
T:Public Domain Courtesy of the Cyber Hymnal™
T:Public Domain Courtesy of the Cyber Hymnal™
C:David Stiles Hakes
Z:Public Domain
Z:Courtesy of the Cyber Hymnal™
%%score ( 1 2 ) ( 3 4 )
L:1/8
Q:1/4=103
M:3/4
K:Eb
V:1 treble 
V:2 treble 
V:3 bass 
V:4 bass 
V:1
 [B,E]>[B,F] | [EG]3 [EG] [EA][EA] | [EG]2 [B,E]2 [B,G]>[B,A] | [EB]3 [EB] [Ec][Ec] | %4
w: 1.~Lift Him|up, ’tis He that|bids you, Let the|dy- ing look and|
w: 2.~Lift Him|up, this pre- cious|Sav- ior, Let the|mul- ti- tude be-|
w: 3.~Lift Him|up in all His|glo- ry, ’Tis the|Son of God on|
w: 4.~O then|lift Him up in|sing- ing, Lift the|Sav- ior up in|
 [EB]4 [FA]>[=EG] | [FA]2 [DF]2 [EG]>[EA] | [EG]2 [B,E]2 [EG]>[EG] | [DF]3 [B,D] [=A,D][A,C] | %8
w: live, To all|wea- ry, thirst- ing|sin- ners, Liv- ing|wa- ters will He|
w: hold; They with|will- ing hearts shall|seek Him, He will|draw them to His|
w: high; Lift Him|up, His love shall|draw them, E’en the|care- less shall draw|
w: prayer; He, the|glo- ri- ous Re-|deem- er, All the|sins of men did|
 B,4 B,>B, | [B,A]3 [B,A] [B,G][B,F] | [B,G]2 [EB]2 [EG]>[EG] | [FA]3 [FA] [EG][DF] | %12
w: give; And though|once so meek and|low- ly, Yet the|Prince of Heav’n was|
w: fold; They shall|ga- ther from the|way- side, Has- tening|on with joy- ous|
w: nigh; Let them|hear a- gain the|sto- ry Of the|cross, the death of|
w: bear; Yes, the|young shall bow be-|fore Him, And the|old their voic- es|
 [EG]4 [EG]>[FA] | [GB]3 [EG] E[Ec] | [EB]2 [EG]2 E>[EF] | [EG]3 [B,E] [B,G][B,F] | [B,E]4 || %17
w: He; And the|blind, who grope in|dark- ness, Through the|blood of Christ shall|see.|
w: feet, And shall|bear the cross of|Je- sus, And shall|find sal- va- tion|sweet.|
w: shame; And from|tongue to tongue re-|peat it; Might- y|throngs shall bless His|name.|
w: raise; All the|deaf shall hear ho-|san- nah; And the|dumb shall shout His|praise.|
"^Refrain" E>E | [Ec]3 [D=B] [Ec][CA] | [B,G]2 [EB]2 [EB]>[EB] | [DB]3 [DF] [EG][FA] | [EG]4 E>E | %22
w: |||||
w: Lift Him|up, the ris- en|Sav- ior, High a-|mid the wait- ing|throng; Lift Him|
w: |||||
w: |||||
 [Ee]3 [Ed] [Ee][Ec] | [EB]2 [EG]2 E>E | [EG]3 [B,E] [B,G][B,F] | [B,E]4 |] %26
w: ||||
w: up, ’tis He that|speak- eth, Now He|bids you flee from|wrong.|
w: ||||
w: ||||
V:2
 x2 | x6 | x6 | x6 | x6 | x6 | x6 | x6 | B,4 B,>B, | x6 | x6 | x6 | x6 | x6 | x4 E3/2 x/ | x6 | %16
 x4 || E>E | x6 | x6 | x6 | x4 E>E | x6 | x4 E>E | x6 | x4 |] %26
V:3
 [E,G,]>[E,A,] | [E,B,]3 [E,B,] [E,C][E,C] | [E,B,]2 [E,G,]2 E,>[E,F,] | %3
 [E,G,]3 [E,G,] [E,A,][E,A,] | [E,G,]4 [B,,B,]>[B,,B,] | [B,,B,]2 [B,,B,]2 [E,B,]>[E,C] | %6
 [E,B,]2 [E,G,]2 [E,B,]>[E,B,] | [F,B,]3 F, [F,,F,][F,,E,] | [B,,D,]4 B,,>B,, | %9
 [B,,F,]3 [B,,F,] [B,,E,][B,,D,] | E,2 [E,G,]2 [E,B,]>[E,B,] | [B,,B,]3 [B,,B,] [B,,B,][B,,B,] | %12
 [E,B,]4 [E,B,]>[E,B,] | [E,B,]3 [E,B,] [E,G,][E,A,] | [E,G,]2 [E,B,]2 [G,,B,]>[A,,C] | %15
 [B,,B,]3 [B,,G,] [B,,B,][B,,A,] | [E,G,]4 || E,>E, | [A,,A,]3 [A,,A,] [A,,A,][A,,E,] | %19
 E,2 [E,G,]2 [E,G,]>[E,G,] | [B,,F,]3 [B,,B,] [B,,B,][B,,B,] | [E,B,]4 E,>E, | %22
 [A,,C]3 [A,,=B,] [A,,C][A,,A,] | [E,G,]2 [E,B,]2 [A,,B,]>[A,,C] | %24
 [B,,B,]3 [B,,G,] [B,,B,][B,,A,] | [E,,E,G,]4 |] %26
V:4
 x2 | x6 | x6 | x6 | x6 | x6 | x6 | x3 F, x2 | x4 B,,>B,, | x6 | E,2 x4 | x6 | x6 | x6 | x6 | x6 | %16
 x4 || E,>E, | x6 | E,2 x4 | x6 | x4 E,>E, | x6 | x6 | x6 | x4 |] %26

